assets/img/blocks/postgrid/16.svg

<?xml version="1.0" encoding="UTF-8"?>
<svg width="65px" height="49px" viewBox="0 0 65 49" version="1.1" xmlns="http://www.w3.org/2000/svg" xmlns:xlink="http://www.w3.org/1999/xlink">
    <!-- Generator: Sketch 54.1 (76490) - https://sketchapp.com -->
    <title>Group 25</title>
    <desc>Created with Sketch.</desc>
    <g id="Assets" stroke="none" stroke-width="1" fill="none" fill-rule="evenodd">
        <g id="Artboard-Copy" transform="translate(-1354.000000, -1961.000000)">
            <g id="Group-25" transform="translate(1354.000000, 1961.000000)">
                <rect id="Rectangle-Copy-466" fill="#F2F3F7" x="0" y="0" width="65" height="49"></rect>
                <path d="M51.2777778,7.20588235 C54.069884,7.20588235 56.3333333,9.46421075 56.3333333,12.25 C56.3333333,15.0357893 54.069884,17.2941176 51.2777778,17.2941176 C48.4856715,17.2941176 46.2222222,15.0357893 46.2222222,12.25 C46.2222222,9.46421075 48.4856715,7.20588235 51.2777778,7.20588235 L51.2777778,7.20588235 Z" id="Path-Copy-9" fill="#D6D9DD" fill-rule="nonzero"></path>
                <path d="M63.5554541,43.7449119 C63.5554541,45.36017 62.0605842,47.5588235 59.2605772,47.5588235 L5.7988447,47.5588235 C3.46419554,47.5588235 1.44455416,45.8725703 1.44455416,43.7449119 L1.44455416,34.9035084 C1.4374713,34.131893 1.77356722,33.3893969 2.37883364,32.8395175 L18.8221525,18.1241819 C20.1153934,17.0174296 22.153595,17.0174296 23.4468359,18.1241819 L35.6578688,29.0290729 L41.7213426,23.6058742 C42.3345921,23.0573251 43.1663744,22.7491487 44.0336843,22.7491487 C44.9009943,22.7491487 45.7327766,23.0573251 46.346026,23.6058742 L62.5931462,38.1373726 C63.1984126,38.687252 63.5625369,39.1972514 63.5554541,39.9688668 L63.5554541,43.7449119 Z" id="Path-Copy-14" fill="#D6D9DD" fill-rule="nonzero"></path>
            </g>
        </g>
    </g>
</svg>

<svg xmlns="http://www.w3.org/2000/svg" width="65" height="49"><g fill="none" fill-rule="evenodd"><path fill="#F2F3F7" d="M0 0h65v49H0z"/><path fill="#D6D9DD" fill-rule="nonzero" d="M51.278 7.206a5.05 5.05 0 0 1 5.055 5.044 5.05 5.05 0 0 1-5.055 5.044 5.05 5.05 0 0 1-5.056-5.044 5.05 5.05 0 0 1 5.056-5.044ZM63.555 43.745c0 1.615-1.494 3.814-4.294 3.814H5.799c-2.335 0-4.354-1.686-4.354-3.814v-8.841c-.008-.772.329-1.515.934-2.064l16.443-14.716c1.293-1.107 3.332-1.107 4.625 0l12.21 10.905 6.064-5.423c.614-.549 1.445-.857 2.313-.857.867 0 1.699.308 2.312.857l16.247 14.531c.605.55.97 1.06.962 1.832v3.776Z"/></g></svg>
